X: 3
T: The Morning Thrush
R: reel
M: 4/4
L: 1/8
K: Dmaj
fag|:~f2ef d2AF|dAAF A2fe|d2AF DF~F2|ABdf egfe|dAAF dAAF|BAFA dADE|EDFA defa|1afef dfag:|2afef d2(3ABc|||:dffe f2af|.g.g.ge .f.f.fe|dcde faaf|~g3f eAce|dffe fa~a2|bfaf ecdB|ADFA defa|afef d2(3ABc:||:dAAF BAAF|DFDF AF~F2|dFAF dF~F2|ABdf e2fe||dFAF DF~F2|AdfA DF~F2|ABdg f/g/agb|1afef d2(3ABc:|2afef d4||


Tune 967	Setting 967

